assets/img/region/eu.svg

<svg xmlns="http://www.w3.org/2000/svg" viewBox="0 0 45 45" style="enable-background:new 0 0 45 45" xml:space="preserve"><defs><clipPath id="a" clipPathUnits="userSpaceOnUse"><path d="M4 31a4 4 0 0 1-4-4V9a4 4 0 0 1 4-4h28a4 4 0 0 1 4 4v18a4 4 0 0 1-4 4H4z"/></clipPath></defs><g clip-path="url(#a)" transform="matrix(1.25 0 0 -1.25 0 45)"><path style="fill:#039;fill-opacity:1;fill-rule:nonzero;stroke:none" d="M0 31h36V5H0v26z"/><path style="fill:#fc0;fill-opacity:1;fill-rule:nonzero;stroke:none" d="m0 0 .849.617H-.2l-.325.998-.324-.998h-1.049L-1.049 0l-.325-.998.849.617.849-.617L0 0z" transform="translate(18.54 26.296)"/><path style="fill:#fc0;fill-opacity:1;fill-rule:nonzero;stroke:none" d="m0 0 .849.617H-.2l-.325.998-.324-.998h-1.049L-1.049 0l-.325-.998.849.617.849-.617L0 0z" transform="translate(18.54 8.962)"/><path style="fill:#fc0;fill-opacity:1;fill-rule:nonzero;stroke:none" d="m0 0 .849.617H-.2l-.325.998-.324-.998h-1.049L-1.049 0l-.325-.998.849.617.849-.617L0 0z" transform="translate(9.873 17.629)"/><path style="fill:#fc0;fill-opacity:1;fill-rule:nonzero;stroke:none" d="m0 0 .849.617H-.2l-.325.998-.324-.998h-1.049L-1.049 0l-.325-.998.849.617.849-.617L0 0z" transform="translate(10.98 21.914)"/><path style="fill:#fc0;fill-opacity:1;fill-rule:nonzero;stroke:none" d="m0 0 .849.617H-.2l-.325.998-.324-.998h-1.049L-1.049 0l-.325-.998.849.617.849-.617L0 0z" transform="translate(10.98 13.296)"/><path style="fill:#fc0;fill-opacity:1;fill-rule:nonzero;stroke:none" d="m0 0 .849.617H-.2l-.325.998-.324-.998h-1.049L-1.049 0l-.325-.998.849.617.849-.617L0 0z" transform="translate(14.206 25.134)"/><path style="fill:#fc0;fill-opacity:1;fill-rule:nonzero;stroke:none" d="m0 0 .849.617H-.2l-.325.998-.324-.998h-1.049L-1.049 0l-.325-.998.849.617.849-.617L0 0z" transform="translate(14.206 10.067)"/><path style="fill:#fc0;fill-opacity:1;fill-rule:nonzero;stroke:none" d="m0 0-.849.617H.2l.325.998.324-.998h1.049L1.049 0l.325-.998-.849.617-.849-.617L0 0z" transform="translate(26.128 17.629)"/><path style="fill:#fc0;fill-opacity:1;fill-rule:nonzero;stroke:none" d="m0 0-.849.617H.2l.325.998.324-.998h1.049L1.049 0l.325-.998-.849.617-.849-.617L0 0z" transform="translate(25.02 21.914)"/><path style="fill:#fc0;fill-opacity:1;fill-rule:nonzero;stroke:none" d="m0 0-.849.617H.2l.325.998.324-.998h1.049L1.049 0l.325-.998-.849.617-.849-.617L0 0z" transform="translate(25.02 13.296)"/><path style="fill:#fc0;fill-opacity:1;fill-rule:nonzero;stroke:none" d="m0 0-.849.617H.2l.325.998.324-.998h1.049L1.049 0l.325-.998-.849.617-.849-.617L0 0z" transform="translate(21.794 25.134)"/><path style="fill:#fc0;fill-opacity:1;fill-rule:nonzero;stroke:none" d="m0 0-.849.617H.2l.325.998.324-.998h1.049L1.049 0l.325-.998-.849.617-.849-.617L0 0z" transform="translate(21.794 10.067)"/></g></svg>

<?xml version="1.0" encoding="UTF-8" standalone="no"?><svg xmlns:dc="http://purl.org/dc/elements/1.1/" xmlns:cc="http://creativecommons.org/ns#" xmlns:rdf="http://www.w3.org/1999/02/22-rdf-syntax-ns#" xmlns:svg="http://www.w3.org/2000/svg" xmlns="http://www.w3.org/2000/svg" viewBox="0 0 45 45" style="enable-background:new 0 0 45 45;" xml:space="preserve" version="1.1" id="svg2"><metadata id="metadata8"><rdf:RDF><cc:Work rdf:about=""><dc:format>image/svg+xml</dc:format><dc:type rdf:resource="http://purl.org/dc/dcmitype/StillImage"/></cc:Work></rdf:RDF></metadata><defs id="defs6"><clipPath id="clipPath16" clipPathUnits="userSpaceOnUse"><path id="path18" d="M 4,31 C 1.791,31 0,29.21 0,27 L 0,27 0,9 C 0,6.79 1.791,5 4,5 l 0,0 28,0 c 2.209,0 4,1.79 4,4 l 0,0 0,18 c 0,2.21 -1.791,4 -4,4 l 0,0 -28,0 z"/></clipPath></defs><g transform="matrix(1.25,0,0,-1.25,0,45)" id="g10"><g id="g12"><g clip-path="url(#clipPath16)" id="g14"><path id="path20" style="fill:#003399;fill-opacity:1;fill-rule:nonzero;stroke:none" d="M 0,31 36,31 36,5 0,5 0,31 Z"/><g transform="translate(18.5392,26.2955)" id="g22"><path id="path24" style="fill:#ffcc00;fill-opacity:1;fill-rule:nonzero;stroke:none" d="m 0,0 0.849,0.617 -1.049,0 -0.325,0.998 -0.324,-0.998 -1.049,0 L -1.049,0 -1.374,-0.998 -0.525,-0.381 0.324,-0.998 0,0 Z"/></g><g transform="translate(18.5392,8.9622)" id="g26"><path id="path28" style="fill:#ffcc00;fill-opacity:1;fill-rule:nonzero;stroke:none" d="m 0,0 0.849,0.617 -1.049,0 -0.325,0.998 -0.324,-0.998 -1.049,0 L -1.049,0 -1.374,-0.998 -0.525,-0.381 0.324,-0.998 0,0 Z"/></g><g transform="translate(9.8725,17.6288)" id="g30"><path id="path32" style="fill:#ffcc00;fill-opacity:1;fill-rule:nonzero;stroke:none" d="m 0,0 0.849,0.617 -1.049,0 -0.325,0.998 -0.324,-0.998 -1.049,0 L -1.049,0 -1.374,-0.998 -0.525,-0.381 0.324,-0.998 0,0 Z"/></g><g transform="translate(10.9799,21.914)" id="g34"><path id="path36" style="fill:#ffcc00;fill-opacity:1;fill-rule:nonzero;stroke:none" d="m 0,0 0.849,0.617 -1.049,0 -0.325,0.998 -0.324,-0.998 -1.049,0 L -1.049,0 -1.374,-0.998 -0.525,-0.381 0.324,-0.998 0,0 Z"/></g><g transform="translate(10.9799,13.2955)" id="g38"><path id="path40" style="fill:#ffcc00;fill-opacity:1;fill-rule:nonzero;stroke:none" d="m 0,0 0.849,0.617 -1.049,0 -0.325,0.998 -0.324,-0.998 -1.049,0 L -1.049,0 -1.374,-0.998 -0.525,-0.381 0.324,-0.998 0,0 Z"/></g><g transform="translate(14.2058,25.1344)" id="g42"><path id="path44" style="fill:#ffcc00;fill-opacity:1;fill-rule:nonzero;stroke:none" d="m 0,0 0.849,0.617 -1.049,0 -0.325,0.998 -0.324,-0.998 -1.049,0 L -1.049,0 -1.374,-0.998 -0.525,-0.381 0.324,-0.998 0,0 Z"/></g><g transform="translate(14.2058,10.0667)" id="g46"><path id="path48" style="fill:#ffcc00;fill-opacity:1;fill-rule:nonzero;stroke:none" d="m 0,0 0.849,0.617 -1.049,0 -0.325,0.998 -0.324,-0.998 -1.049,0 L -1.049,0 -1.374,-0.998 -0.525,-0.381 0.324,-0.998 0,0 Z"/></g><g transform="translate(26.1275,17.6288)" id="g50"><path id="path52" style="fill:#ffcc00;fill-opacity:1;fill-rule:nonzero;stroke:none" d="m 0,0 -0.849,0.617 1.049,0 0.325,0.998 0.324,-0.998 1.049,0 L 1.049,0 1.374,-0.998 0.525,-0.381 -0.324,-0.998 0,0 Z"/></g><g transform="translate(25.0201,21.914)" id="g54"><path id="path56" style="fill:#ffcc00;fill-opacity:1;fill-rule:nonzero;stroke:none" d="m 0,0 -0.849,0.617 1.049,0 0.325,0.998 0.324,-0.998 1.049,0 L 1.049,0 1.374,-0.998 0.525,-0.381 -0.324,-0.998 0,0 Z"/></g><g transform="translate(25.0201,13.2955)" id="g58"><path id="path60" style="fill:#ffcc00;fill-opacity:1;fill-rule:nonzero;stroke:none" d="m 0,0 -0.849,0.617 1.049,0 0.325,0.998 0.324,-0.998 1.049,0 L 1.049,0 1.374,-0.998 0.525,-0.381 -0.324,-0.998 0,0 Z"/></g><g transform="translate(21.7942,25.1344)" id="g62"><path id="path64" style="fill:#ffcc00;fill-opacity:1;fill-rule:nonzero;stroke:none" d="m 0,0 -0.849,0.617 1.049,0 0.325,0.998 0.324,-0.998 1.049,0 L 1.049,0 1.374,-0.998 0.525,-0.381 -0.324,-0.998 0,0 Z"/></g><g transform="translate(21.7942,10.0667)" id="g66"><path id="path68" style="fill:#ffcc00;fill-opacity:1;fill-rule:nonzero;stroke:none" d="m 0,0 -0.849,0.617 1.049,0 0.325,0.998 0.324,-0.998 1.049,0 L 1.049,0 1.374,-0.998 0.525,-0.381 -0.324,-0.998 0,0 Z"/></g></g></g></g></svg>
